**kern	**silbe	**kern	**silbe	**harmony	**phrase	**leadinstrument	**rhyme	**timestamp	**harte
*ICvox	*	*ICvox	*	*M4/4	*	*	*	*	*M4/4
*VRlead	*	*VRharmonize	*	*	*	*	*	*	*
*Hstimme	*	*Nstimme	*	*	*	*	*	*	*
*E:	*	*E:	*	*E:	*	*	*	*	*E:
*M4/4	*	*M4/4	*	*	*	*	*	*	*
*clefG2	*	*clefF4	*	*	*	*	*	*	*
r;	.	r;	.	1r;	.	r	.	0	N.C.
=1	=1	=1	=1	=1	=1	=1	=1	=1	=1
*>Letter>A	*>Letter>A	*>Letter>A	*>Letter>A	*>Letter>A	*>Letter>A	*>Letter>A	*>Letter>A	*>Letter>A	*>Letter>A
*>Label>Chorus	*>Label>Chorus	*>Label>Chorus	*>Label>Chorus	*>Label>Chorus	*>Label>Chorus	*>Label>Chorus	*>Label>Chorus	*>Label>Chorus	*>Label>Chorus
4r	.	1r	.	1EM	newline	voice	.	0.557	E:maj
8f#q	_	.	.	.	.	.	.	.	.
[4g#	I	.	.	.	.	.	.	.	.
4g#]	_	.	.	.	.	.	.	.	.
8g#q	_	.	.	.	.	.	.	.	.
4e	been	.	.	.	.	.	.	.	.
=2	=2	=2	=2	=2	=2	=2	=2	=2	=2
4.e	chea-	1r	.	1EM	.	voice	(A	2.5	E:maj
8e	-ted	.	.	.	.	.	a)	.	.
4f#	_	.	.	.	.	.	.	.	.
4r	.	.	.	.	.	.	.	.	.
=3	=3	=3	=3	=3	=3	=3	=3	=3	=3
4r	.	1r	.	1EM	.	voice	.	4.443	E:maj
8f#q	_	.	.	.	.	.	.	.	.
[4g#	been	.	.	.	.	.	.	.	.
4g#]	_	.	.	.	.	.	.	.	.
8g#q	_	.	.	.	.	.	.	.	.
4e	_	.	.	.	.	.	.	.	.
=4	=4	=4	=4	=4	=4	=4	=4	=4	=4
4.e	trea-	1r	.	1EM	.	voice	(A	6.386	E:maj
8e	-ted	.	.	.	.	.	a)	.	.
12c#	_	.	.	.	.	.	.	.	.
6B	_	.	.	.	.	.	.	.	.
4r	.	.	.	.	.	.	.	.	.
=5	=5	=5	=5	=5	=5	=5	=5	=5	=5
4r	.	4r	.	1EM	newline	voice	.	8.329	E:maj
8f#q	_	8c#q	_	.	.	.	.	.	.
[4g#	When	[4B [4e	When	.	.	.	.	.	.
4g#]	_	4B] 4e]	_	.	.	.	.	.	.
12g#	will	12B [12e	will	.	.	.	.	.	.
6e	_	6c# 6e]	_	.	.	.	.	.	.
=6	=6	=6	=6	=6	=6	=6	=6	=6	=6
2e	I	2A 2c#	I	2AM	.	voice	.	10.159	A:maj/5
[4f#	_	[4B [4d#	_	2BM	.	voice	.	11.074	B:maj/4
6f#]	_	6B] 6d#]	_	.	.	.	.	.	.
12f#	be	12B 12d#	be	.	.	.	.	.	.
=7	=7	=7	=7	=7	=7	=7	=7	=7	=7
6e	_	6G# 6B	_	1EM	.	voice	.	11.99	E:maj
[12e	loved?	[12G# [12B	loved?	.	.	.	.	.	.
2.e]	_	2.G#] 2.B]	_	.	.	.	.	.	.
=8	=8	=8	=8	=8	=8	=8	=8	=8	=8
1r	.	1r	.	2AM	.	voice	.	13.82	A:maj
.	.	.	.	2BM	.	voice	.	14.735	B:maj
=9	=9	=9	=9	=9	=9	=9	=9	=9	=9
4r	.	4r	.	1EM	newline	voice	.	15.65	E:maj
8f#q	_	8G#q 8c#q	_	.	.	.	.	.	.
[4g#	I've	[4B [4e	I've	.	.	.	.	.	.
4g#]	_	4B] 4e]	_	.	.	.	.	.	.
8g#q	_	.	.	.	.	.	.	.	.
4e	been	4r	.	.	.	.	.	.	.
=10	=10	=10	=10	=10	=10	=10	=10	=10	=10
4.e	put	4.A 4.c#	put	2AM	.	voice	.	17.48	A:maj
[8f#	down,	[8B [8d#	down,	.	.	.	B	.	.
4f#]	_	4B] 4d#]	_	2BM	.	voice	.	18.394	B:maj
4r	.	4r	.	.	.	.	.	.	.
=11	=11	=11	=11	=11	=11	=11	=11	=11	=11
4r	.	4r	.	1EM	.	voice	.	19.309	E:maj
8g#q	_	8G#q 8c#q	_	.	.	.	.	.	.
[4b	I've	[4B [4e	I've	.	.	.	.	.	.
4b]	_	4B] 4e]	_	.	.	.	.	.	.
8g#q	_	.	.	.	.	.	.	.	.
4e	been	4r	.	.	.	.	.	.	.
=12	=12	=12	=12	=12	=12	=12	=12	=12	=12
4.e	pushed	4.A 4.c#	pushed	2AM	.	voice	.	21.139	A:maj
[8f#	'round,	[8B [8d#	'round,	.	.	.	B	.	.
4f#]	_	4B] 4d#]	_	2BM	.	voice	.	22.053	B:maj
4r	.	4r	.	.	.	.	.	.	.
=13	=13	=13	=13	=13	=13	=13	=13	=13	=13
4r	.	4r	.	1EM	newline	voice	.	22.968	E:maj
8f#q	_	8c#q	_	.	.	.	.	.	.
[4g#	When	[4B [4e	When	.	.	.	.	.	.
4g#]	_	4B] 4e]	_	.	.	.	.	.	.
12g#	will	12B [12e	will	.	.	.	.	.	.
6e	_	6c# 6e]	_	.	.	.	.	.	.
=14	=14	=14	=14	=14	=14	=14	=14	=14	=14
2e	I	2A 2c#	I	2AM	.	voice	.	24.767	A:maj
[4f#	_	[4B [4d#	_	2BM	.	voice	.	25.666	B:maj
6f#]	_	6B] 6d#]	_	.	.	.	.	.	.
12f#	be	12B 12d#	be	.	.	.	.	.	.
=15	=15	=15	=15	=15	=15	=15	=15	=15	=15
6e	_	6G# 6B	_	1EM	.	voice	.	26.566	E:maj
[12e	loved	[12G# [12B	loved?	.	.	.	.	.	.
2.e_	_	2.G#] 2.B]	_	.	.	.	.	.	.
=16	=16	=16	=16	=16	=16	=16	=16	=16	=16
4e]	_	1r	.	1EM	.	voice	.	28.364	E:maj
4r	.	.	.	.	.	.	.	.	.
2r	.	.	.	.	.	.	.	.	.
=17	=17	=17	=17	=17	=17	=17	=17	=17	=17
*>Letter>B	*>Letter>B	*>Letter>B	*>Letter>B	*>Letter>B	*>Letter>B	*>Letter>B	*>Letter>B	*>Letter>B	*>Letter>B
*>Label>Verse	*>Label>Verse	*>Label>Verse	*>Label>Verse	*>Label>Verse	*>Label>Verse	*>Label>Verse	*>Label>Verse	*>Label>Verse	*>Label>Verse
4r	.	1r	.	1AM	newline	voice	.	30.163	A:maj(9)
8e	When	.	.	.	.	.	.	.	.
8c#	I	.	.	.	.	.	.	.	.
4.e	find	.	.	.	.	.	.	.	.
8e	a	.	.	.	.	.	.	.	.
=18	=18	=18	=18	=18	=18	=18	=18	=18	=18
8f#q	_	.	.	.	.	.	.	.	.
4g#	_	1r	.	1BM	.	voice	.	31.978	B:maj
8f#	man,	.	.	.	.	.	.	.	.
8e	_	.	.	.	.	.	.	.	.
2r	.	.	.	.	.	.	.	.	.
=19	=19	=19	=19	=19	=19	=19	=19	=19	=19
4r	.	1r	.	1AM	.	voice	.	33.793	A:maj(9)
8e	that	.	.	.	.	.	.	.	.
8e	I	.	.	.	.	.	.	.	.
8e	want	.	.	.	.	.	.	.	.
8B	for	.	.	.	.	.	.	.	.
8c#	_	.	.	.	.	.	.	.	.
8B	_	.	.	.	.	.	.	.	.
=20	=20	=20	=20	=20	=20	=20	=20	=20	=20
4B	mine,	1r	.	1EM	.	voice	C	35.608	E:maj
4r	.	.	.	.	.	.	.	.	.
4r	.	.	.	.	.	.	.	.	.
8r	.	.	.	.	.	.	.	.	.
8B	he	.	.	.	.	.	.	.	.
=21	=21	=21	=21	=21	=21	=21	=21	=21	=21
4e	al-	1r	.	1AM	newline	voice	.	37.422	A:maj(9)
8e	-ways	.	.	.	.	.	.	.	.
8e	breaks	.	.	.	.	.	.	.	.
4r	.	.	.	.	.	.	.	.	.
8r	.	.	.	.	.	.	.	.	.
8e	my	.	.	.	.	.	.	.	.
=22	=22	=22	=22	=22	=22	=22	=22	=22	=22
4f#	heart	2r	.	1BM	.	voice	.	39.241	B:maj
8f#	in	.	.	.	.	.	.	.	.
8f#	two,	.	.	.	.	.	.	.	.
12e	_	4r	.	.	.	.	.	.	.
6d#	_	.	.	.	.	.	.	.	.
8r	.	8r	.	.	.	.	.	.	.
8B	it	8E	it	.	.	.	.	.	.
=23	=23	=23	=23	=23	=23	=23	=23	=23	=23
8g#	hap-	8A 8c#	hap-	1D-mm	.	voice	.	41.06	D-:min7
4.b	-pens	4.c# 4.e	-pens	.	.	.	.	.	.
12g#	e	12c# 12e	e	.	.	.	.	.	.
12f#	_	12B 12d#	_	.	.	.	.	.	.
[12e	_	[12A [12c#	_	.	.	.	.	.	.
6e]	_	6A] 6c#]	_	.	.	.	.	.	.
12g#	v'ry	12A 12c#	v'ry	.	.	.	.	.	.
=24	=24	=24	=24	=24	=24	=24	=24	=24	=24
8f#	_	8B 8d#	_	1BM	.	voice	.	42.879	B:maj
[8f#	time!	[8B [8d#	time!	.	.	.	C	.	.
2.f#_	_	2.B_ 2.d#_	_	.	.	.	.	.	.
=25	=25	=25	=25	=25	=25	=25	=25	=25	=25
2.f#]	_	2.B] 2.d#]	_	1BM	.	voice	.	44.698	B:maj
4r	.	4r	.	.	.	.	.	.	.
=26	=26	=26	=26	=26	=26	=26	=26	=26	=26
*>Letter>A	*>Letter>A	*>Letter>A	*>Letter>A	*>Letter>A	*>Letter>A	*>Letter>A	*>Letter>A	*>Letter>A	*>Letter>A
*>Label>Chorus	*>Label>Chorus	*>Label>Chorus	*>Label>Chorus	*>Label>Chorus	*>Label>Chorus	*>Label>Chorus	*>Label>Chorus	*>Label>Chorus	*>Label>Chorus
4r	.	4r	.	1EM	newline	voice	.	46.517	E:maj
8f#q	_	8G#q 8c#q	_	.	.	.	.	.	.
[4g#	I've	[4B [4e	I've	.	.	.	.	.	.
4g#]	_	4B] 4e]	_	.	.	.	.	.	.
8g#q	_	.	.	.	.	.	.	.	.
4e	been	4r	.	.	.	.	.	.	.
=27	=27	=27	=27	=27	=27	=27	=27	=27	=27
4.e	made,	4.A 4.c#	made	2AM	.	voice	.	48.31	A:maj
8eq	_	.	.	.	.	.	.	.	.
[8f#	_	[8B [8d#	blue,	.	.	.	D	.	.
4f#]	_	4B] 4d#]	_	2BM	.	voice	.	49.206	B:maj
4r	.	4r	.	.	.	.	.	.	.
=28	=28	=28	=28	=28	=28	=28	=28	=28	=28
4r	.	4r	.	1EM	.	voice	.	50.103	E:maj
8g#q	_	8G#q 8c#q	_	.	.	.	.	.	.
[4b	I've	[4B [4e	I've	.	.	.	.	.	.
4b]	_	4B] 4e]	_	.	.	.	.	.	.
8g#q	_	.	.	.	.	.	.	.	.
4e	been	4r	.	.	.	.	.	.	.
=29	=29	=29	=29	=29	=29	=29	=29	=29	=29
4.e	lied,	4.A 4.c#	lied	2AM	.	voice	.	51.896	A:maj
8eq	_	.	.	.	.	.	.	.	.
[8f#	_	[8B [8d#	to,	.	.	.	D	.	.
4f#]	_	4B] 4d#]	_	2BM	.	voice	.	52.793	B:maj
4r	.	4r	.	.	.	.	.	.	.
=30	=30	=30	=30	=30	=30	=30	=30	=30	=30
4r	.	4r	.	1EM	newline	voice	.	53.689	E:maj
8f#q	_	8c#q	_	.	.	.	.	.	.
[4g#	When	[4B [4e	When	.	.	.	.	.	.
4g#]	_	4B] 4e]	_	.	.	.	.	.	.
12g#	will	12B [12e	will	.	.	.	.	.	.
6e	_	6c# 6e]	_	.	.	.	.	.	.
=31	=31	=31	=31	=31	=31	=31	=31	=31	=31
2e	I	2A 2c#	I	2AM	.	voice	.	55.472	A:maj
[4f#	_	[4B [4d#	_	2BM	.	voice	.	56.364	B:maj
6f#]	_	6B] 6d#]	_	.	.	.	.	.	.
8f#q	_	8Bq 8d#q	_	.	.	.	.	.	.
[12e	_	[12G# [12B	_	.	.	.	.	.	.
=32	=32	=32	=32	=32	=32	=32	=32	=32	=32
6e]	_	6G#] 6B]	_	1EM	.	voice	.	57.255	E:maj
[12e	loved?	[12G# [12B	loved?	.	.	.	.	.	.
2.e]	_	2.G#] 2.B]	_	.	.	.	.	.	.
=33	=33	=33	=33	=33	=33	=33	=33	=33	=33
1r	.	1r	.	1EM	.	voice	.	59.039	E:maj
=34	=34	=34	=34	=34	=34	=34	=34	=34	=34
1r	.	1r	.	1EM	newline	guitar	.	60.822	E:maj
=35	=35	=35	=35	=35	=35	=35	=35	=35	=35
1r	.	1r	.	2AM	.	guitar	.	62.64	A:maj
.	.	.	.	2BM	.	guitar	.	63.548	B:maj
=36	=36	=36	=36	=36	=36	=36	=36	=36	=36
1r	.	1r	.	1EM	.	guitar	.	64.457	E:maj
=37	=37	=37	=37	=37	=37	=37	=37	=37	=37
1r	.	1r	.	2AM	.	guitar	.	66.275	A:maj
.	.	.	.	2BM	.	guitar	.	67.184	B:maj
=38	=38	=38	=38	=38	=38	=38	=38	=38	=38
1r	.	1r	.	1EM	newline	guitar	.	68.093	E:maj
=39	=39	=39	=39	=39	=39	=39	=39	=39	=39
1r	.	1r	.	2AM	.	guitar	.	69.883	A:maj
.	.	.	.	2BM	.	guitar	.	70.778	B:maj
=40	=40	=40	=40	=40	=40	=40	=40	=40	=40
1r	.	1r	.	1EM	.	guitar	.	71.673	E:maj
=41	=41	=41	=41	=41	=41	=41	=41	=41	=41
1r	.	1r	.	1EM	.	guitar	.	73.463	E:maj
=42	=42	=42	=42	=42	=42	=42	=42	=42	=42
*>Letter>B	*>Letter>B	*>Letter>B	*>Letter>B	*>Letter>B	*>Letter>B	*>Letter>B	*>Letter>B	*>Letter>B	*>Letter>B
*>Label>Verse	*>Label>Verse	*>Label>Verse	*>Label>Verse	*>Label>Verse	*>Label>Verse	*>Label>Verse	*>Label>Verse	*>Label>Verse	*>Label>Verse
4r	.	1r	.	1AM	newline	voice	.	75.253	A:maj(9)
8e	When	.	.	.	.	.	.	.	.
8c#	I	.	.	.	.	.	.	.	.
4.e	find	.	.	.	.	.	.	.	.
8e	a	.	.	.	.	.	.	.	.
=43	=43	=43	=43	=43	=43	=43	=43	=43	=43
8aq	_	.	.	.	.	.	.	.	.
4b	_	1r	.	1BM	.	voice	.	77.065	B:maj
12g#	man,	.	.	.	.	.	.	.	.
12f#	_	.	.	.	.	.	.	.	.
[12e	_	.	.	.	.	.	.	.	.
8e]	_	.	.	.	.	.	.	.	.
8r	.	.	.	.	.	.	.	.	.
4r	.	.	.	.	.	.	.	.	.
=44	=44	=44	=44	=44	=44	=44	=44	=44	=44
*clefF4	*	*	*	*	*	*	*	*	*
4r	.	1r	.	1AM	.	voice	.	78.877	A:maj(9)
8e	that	.	.	.	.	.	.	.	.
8e	I	.	.	.	.	.	.	.	.
8e	want	.	.	.	.	.	.	.	.
8B	for	.	.	.	.	.	.	.	.
8c#	_	.	.	.	.	.	.	.	.
8B	_	.	.	.	.	.	.	.	.
=45	=45	=45	=45	=45	=45	=45	=45	=45	=45
12B	mine,	1r	.	1EM	.	voice	C	80.689	E:maj
12A	_	.	.	.	.	.	.	.	.
[12G#	_	.	.	.	.	.	.	.	.
8G#]	_	.	.	.	.	.	.	.	.
8r	.	.	.	.	.	.	.	.	.
4r	.	.	.	.	.	.	.	.	.
8r	.	.	.	.	.	.	.	.	.
8B	he	.	.	.	.	.	.	.	.
=46	=46	=46	=46	=46	=46	=46	=46	=46	=46
*clefG2	*	*	*	*	*	*	*	*	*
4e	al-	1r	.	1AM	newline	voice	.	82.501	A:maj(9)
8e	-ways	.	.	.	.	.	.	.	.
[8e	breaks	.	.	.	.	.	.	.	.
8e]	_	.	.	.	.	.	.	.	.
8r	.	.	.	.	.	.	.	.	.
8r	.	.	.	.	.	.	.	.	.
8e	my	.	.	.	.	.	.	.	.
=47	=47	=47	=47	=47	=47	=47	=47	=47	=47
8f#q	_	.	.	.	.	.	.	.	.
8g#	_	2r	.	1BM	.	voice	.	84.299	B:maj
8f#	_	.	.	.	.	.	.	.	.
8f#	in	.	.	.	.	.	.	.	.
8f#	two,	.	.	.	.	.	.	.	.
12e	_	4r	.	.	.	.	.	.	.
6d#	_	.	.	.	.	.	.	.	.
8r	.	8r	.	.	.	.	.	.	.
8B	it	8E	it	.	.	.	.	.	.
=48	=48	=48	=48	=48	=48	=48	=48	=48	=48
8g#	hap-	8A 8c#	hap-	1D-mm	.	voice	.	86.097	D-:min7
8g#q	_	8Aq 8c#q	_	.	.	.	.	.	.
4.b	_	4.c# 4.e	_	.	.	.	.	.	.
12g#	e	12c# 12e	e	.	.	.	.	.	.
12f#	_	12B 12d#	_	.	.	.	.	.	.
[12e	_	[12A [12c#	_	.	.	.	.	.	.
6e]	_	6A] 6c#]	_	.	.	.	.	.	.
12g#	v'ry	12A 12c#	v'ry	.	.	.	.	.	.
=49	=49	=49	=49	=49	=49	=49	=49	=49	=49
8f#	_	8B 8d#	_	1BM	.	voice	.	87.895	B:maj
[8f#	time,	[8B [8d#	time!	.	.	.	C	.	.
2f#_	_	2B_ 2d#_	_	.	.	.	.	.	.
12f#]	_	12B] 12d#]	_	.	.	.	.	.	.
12g#	_	12c# 12e	_	.	.	.	.	.	.
12f#	_	12B 12d#	_	.	.	.	.	.	.
=50	=50	=50	=50	=50	=50	=50	=50	=50	=50
12g#	_	12c# 12e	_	1BM	.	voice	.	89.693	B:maj
[6b	_	[6d# [6f#	_	.	.	.	.	.	.
4b_	_	4d#_ 4f#_	_	.	.	.	.	.	.
8b]	_	4d#] 4f#]	_	.	.	.	.	.	.
[8cc#	oh!	.	.	.	.	.	.	.	.
8cc#]	_	4r	.	.	.	.	.	.	.
8b	_	.	.	.	.	.	.	.	.
=51	=51	=51	=51	=51	=51	=51	=51	=51	=51
*>Letter>A	*>Letter>A	*>Letter>A	*>Letter>A	*>Letter>A	*>Letter>A	*>Letter>A	*>Letter>A	*>Letter>A	*>Letter>A
*>Label>Chorus	*>Label>Chorus	*>Label>Chorus	*>Label>Chorus	*>Label>Chorus	*>Label>Chorus	*>Label>Chorus	*>Label>Chorus	*>Label>Chorus	*>Label>Chorus
4r	.	4r	.	1EM	newline	voice	.	91.491	E:maj
8f#q	_	8G#q 8c#q	_	.	.	.	.	.	.
[4g# [4b	I've	[4B [4e	I've	.	.	.	.	.	.
4g#] 4b]	_	4B] 4e]	_	.	.	.	.	.	.
8g#q 8~bq	_	8~Bq 8~eq	_	.	.	.	.	.	.
4e 4~a	been	4~A 4~c#	been	.	.	.	.	.	.
=52	=52	=52	=52	=52	=52	=52	=52	=52	=52
4.e 4.a	chea-	4.A 4.c#	chea-	2AM	.	voice	(A	93.278	A:maj
8eq 8aq	_	.	.	.	.	.	.	.	.
[8f# [8b	-ted	[8B [8d#	-ted	.	.	.	a)	.	.
4f#] 4b]	_	4B] 4d#]	_	2BM	.	voice	.	94.171	B:maj
4r	.	4r	.	.	.	.	.	.	.
=53	=53	=53	=53	=53	=53	=53	=53	=53	=53
4r	.	4r	.	1EM	.	voice	.	95.065	E:maj
8f#q 8aq	_	8G#q 8c#q	_	.	.	.	.	.	.
[4g# [4b	Been	[4B [4e	Been	.	.	.	.	.	.
4g#] 4b]	_	4B] 4e]	_	.	.	.	.	.	.
8g#q 8bq	_	.	.	.	.	.	.	.	.
4e 4a	mis-	4A 4~c#	mis-	.	.	.	.	.	.
=54	=54	=54	=54	=54	=54	=54	=54	=54	=54
4.e 4.a	-trea-	4.A 4.c#	-trea-	2AM	.	voice	(A	96.852	A:maj
8eq 8aq	_	.	.	.	.	.	.	.	.
[8f# [8b	-ted,	[8B [8d#	-ted	.	.	.	a)	.	.
4f#] 4b]	_	4B] 4d#]	_	2BM	.	voice	.	97.745	B:maj
4r	.	4r	.	.	.	.	.	.	.
=55	=55	=55	=55	=55	=55	=55	=55	=55	=55
4r	.	4r	.	1EM	newline	voice	.	98.638	E:maj
8f#q 8aq	_	8c#q	_	.	.	.	.	.	.
[4g# [4b	When	[4B [4e	When	.	.	.	.	.	.
4g#] 4b]	_	4B] 4e]	_	.	.	.	.	.	.
12g# 12b	will	12B [12e	will	.	.	.	.	.	.
6e 6a	_	6c# 6e]	_	.	.	.	.	.	.
=56	=56	=56	=56	=56	=56	=56	=56	=56	=56
2e 2a	I	2A 2c#	I	2AM	.	voice	.	100.428	A:maj
[4f# [4b	_	[4B [4d#	_	2BM	.	voice	.	101.323	B:maj
6f#] 6b]	_	6B] 6d#]	_	.	.	.	.	.	.
[8f#q 8bq	_	8Bq 8d#q	_	.	.	.	.	.	.
[12e [12g#	be	[12G# [12B	be	.	.	.	.	.	.
=57	=57	=57	=57	=57	=57	=57	=57	=57	=57
6e] 6g#]	_	6G#] 6B]	_	1EM	.	voice	.	102.217	E:maj
[12e [12g#	loved?	[12G# [12B	loved?	.	.	.	.	.	.
2e_ 2g#_	_	2G#_ 2B_	_	.	.	.	.	.	.
8e] 8g#]	_	8G#] 8B]	_	.	.	.	.	.	.
8r	.	8r	.	.	.	.	.	.	.
=58	=58	=58	=58	=58	=58	=58	=58	=58	=58
1r	.	1r	.	2AM	.	voice	.	104.007	A:maj
.	.	.	.	2BM	.	voice	.	104.902	B:maj
=59	=59	=59	=59	=59	=59	=59	=59	=59	=59
4r	.	4r	.	1EM	newline	voice	.	105.796	E:maj
8f#q 8aq	_	8c#q	_	.	.	.	.	.	.
[4g# [4b	When	[4B [4e	When	.	.	.	.	.	.
4g#] 4b]	_	4B] 4e]	_	.	.	.	.	.	.
12g# 12b	will	12B [12e	will	.	.	.	.	.	.
6e 6a	_	6c# 6e]	_	.	.	.	.	.	.
=60	=60	=60	=60	=60	=60	=60	=60	=60	=60
2e 2a	I	2A 2c#	I	2AM	.	voice	.	107.567	A:maj
[4f# [4b	_	[4B [4d#	_	2BM	.	voice	.	108.452	B:maj
6f#] 6b]	_	6B] 6d#]	_	.	.	.	.	.	.
[8f#q 8bq	_	8Bq 8d#q	_	.	.	.	.	.	.
[12e [12g#	be	[12G# [12B	be	.	.	.	.	.	.
=61	=61	=61	=61	=61	=61	=61	=61	=61	=61
6e] 6g#]	_	6G#] 6B]	_	1EM	.	voice	.	109.338	E:maj
[12e [12g#	loved?	[12G# [12B	loved?	.	.	.	.	.	.
2e_ 2g#_	_	2G#_ 2B_	_	.	.	.	.	.	.
8e] 8g#]	_	8G#] 8B]	_	.	.	.	.	.	.
8r	.	8r	.	.	.	.	.	.	.
=62	=62	=62	=62	=62	=62	=62	=62	=62	=62
2r	.	1r	.	2AM	.	voice	.	111.108	A:maj
4e	Tell	.	.	2BM	.	voice	.	111.994	B:maj
4e	me,	.	.	.	.	.	.	.	.
=63	=63	=63	=63	=63	=63	=63	=63	=63	=63
4r	.	4r	.	1EM	newline	voice	.	112.879	E:maj
8g#q	_	8c#q	_	.	.	.	.	.	.
[4b	When	[4B [4e	When	.	.	.	.	.	.
4b]	_	4B] 4e]	_	.	.	.	.	.	.
12g#	will	12B	will	.	.	.	.	.	.
12f#	_	6c#	_	.	.	.	.	.	.
12e	_	.	.	.	.	.	.	.	.
=64	=64	=64	=64	=64	=64	=64	=64	=64	=64
2e	I	2A 2c#	I	2AM	.	voice	.	114.653	A:maj/5
[4f#	be	[4B [4d#	be	2BM	.	voice	.	115.54	B:maj/4
16f#]	_	16B] 16d#]	_	.	.	.	.	.	.
16g#	_	16c# 16e	_	.	.	.	.	.	.
16f#	_	16B 16d#	_	.	.	.	.	.	.
16e	_	16A 16c#	_	.	.	.	.	.	.
=65	=65	=65	=65	=65	=65	=65	=65	=65	=65
4r	.	4r	.	1AM	.	voice	.	116.427	A:maj/5
[2.e	loved?	4A [4c#	loved?	.	.	.	.	.	.
.	.	16.A 16.c#]	_	.	.	.	.	.	.
.	.	32A 32d	_	.	.	.	.	.	.
.	.	16.A 16.c#	_	.	.	.	.	.	.
.	.	32A 32d	_	.	.	.	.	.	.
.	.	[8A 8c#	_	.	.	.	.	.	.
.	.	8A] 8B	_	.	.	.	.	.	.
=66	=66	=66	=66	=66	=66	=66	=66	=66	=66
4e_	_	8G [8B	_	1r;	.	r	.	118.202	N.C.
.	.	[8G# 8B_	_	.	.	.	.	.	.
2.e]	_	2.G#] 2.B]	_	.	.	.	.	.	.
=67	=67	=67	=67	=67	=67	=67	=67	=67	=67
1r	.	1r	.	1EM	.	r	.	119.976	E:maj
r;	.	r;	.	1r;	.	r	.	124.633	N.C.
r;	.	r;	.	1r;	.	r	.	124.918	N.C.
*-	*-	*-	*-	*-	*-	*-	*-	*-	*-
!!!BillboardChartDate: 1975/07/26, 1975/07/19
!!!BillboardPeak: 2, 2
!!!BillboardWeeksOnChart: 19, 19
!!!COC: Linda Ronstadt
!!!ENC: Nathaniel Condit-Schultz
!!!EST: Awating manual error checking and editing.
!!!OTL: When Will I Be Loved
!!!RDF**chordsym: original McGill chord annotation + (implied pitch class set, with bass pitch in first position)
!!!RDF**harmony: **recip + pitch class of root + harmonic quality
!!!RDF**leadinstrument: original McGill primary instrumentation annotation
!!!RDF**phrase: newline = linebreak in original McGill transcription
!!!RDF**timestamp: McGill audio timestamp in seconds
!!!RDT: 2017/01/12/
!!!SampleActualRank: 73, 23
!!!SampleID#: 324, 839
!!!SampleTargetRank: 72, 23
